Deepin/places/16/network-workgroup.svg

<?xml version="1.0" encoding="utf-8"?>
<!-- Generator: Adobe Illustrator 17.0.0, SVG Export Plug-In . SVG Version: 6.00 Build 0)  -->
<!DOCTYPE svg PUBLIC "-//W3C//DTD SVG 1.1//EN" "http://www.w3.org/Graphics/SVG/1.1/DTD/svg11.dtd">
<svg version="1.1" id="图层_1" xmlns="http://www.w3.org/2000/svg" xmlns:xlink="http://www.w3.org/1999/xlink" x="0px" y="0px"
	 width="16px" height="16px" viewBox="0 0 16 16" enable-background="new 0 0 16 16" xml:space="preserve">
<g>
	<line fill="none" stroke="#3C3C3C" x1="31.693" y1="8.071" x2="31.693" y2="16.071"/>
	<line fill="none" stroke="#3C3C3C" x1="31.193" y1="16.571" x2="43.193" y2="16.571"/>
	<line fill="none" stroke="#3C3C3C" x1="42.693" y1="17.071" x2="42.693" y2="3.071"/>
</g>
<rect x="35.693" y="12.571" fill="none" stroke="#3C3C3C" width="3" height="4"/>
<line fill="none" stroke="#3C3C3C" x1="40.193" y1="3.571" x2="42.193" y2="3.571"/>
<line fill="none" stroke="#3C3C3C" x1="40.693" y1="4.071" x2="40.693" y2="7.071"/>
<g>
	<line fill="none" stroke="#3C3C3C" stroke-width="2" x1="44.264" y1="10.278" x2="36.486" y2="2.5"/>
	<line fill="none" stroke="#3C3C3C" stroke-width="2" x1="30.122" y1="10.278" x2="37.9" y2="2.5"/>
</g>
<rect x="3.875" y="20.321" fill="none" stroke="#3C3C3C" width="13" height="9"/>
<rect x="7.875" y="29.25" fill="none" stroke="#3C3C3C" width="5" height="3"/>
<rect x="6.375" y="31.25" fill="#3C3C3C" width="8" height="2"/>
<g>
	<g>
		<defs>
			<circle id="SVGID_1_" cx="23.778" cy="3.802" r="3.172"/>
		</defs>
		<clipPath id="SVGID_2_">
			<use xlink:href="#SVGID_1_"  overflow="visible"/>
		</clipPath>
		
			<path id="path3522_2_" sodipodi:nodetypes="cccccccccccccccccccccccccccccccccccccccccccccccccccccccccccccccccccccccccccccccccccccccccccccccccccccccccccccccccccsccccccccccccccccccccccccccccccccccccccccccccccccccc" clip-path="url(#SVGID_2_)" fill="#3C3C3C" d="
			M23.052,0.638c0.133,0.179,0.009,0.477,0.21,0.474c0.098,0.138-0.195,0.041,0.016,0.148c0.122,0.096-0.129,0.15,0.022,0.236
			c-0.174,0.089,0.028,0.468,0.157,0.563c0.212,0.178,0.094-0.378,0.331-0.407c0.129-0.147,0.355-0.241,0.516-0.388
			c-0.157-0.013-0.249-0.11-0.1-0.171c0.274,0.28,0.069-0.133-0.083-0.198c0.147-0.047,0.289-0.012,0.269-0.133
			c0.155-0.113-0.149-0.15-0.257-0.124C23.773,0.638,23.413,0.638,23.052,0.638z M20.805,0.755
			c-0.198,0.056-0.212,0.528-0.013,0.266C20.842,0.913,21.067,0.784,20.805,0.755z M21.731,0.771
			c-0.114,0.179,0.017,0.322,0.112,0.104C21.909,0.784,21.792,0.775,21.731,0.771z M22.016,0.811
			c-0.221,0.102-0.054,0.34-0.049,0.393c0.232,0.08,0.361-0.052,0.449,0.174c0.221,0.127-0.004,0.348-0.087,0.406
			c0.149-0.13,0.437,0.353,0.361,0.098c-0.09-0.065,0.241,0.105,0.069-0.108c-0.158-0.254,0.013-0.114,0.079-0.054
			c0.227-0.203-0.256-0.227-0.136-0.436c-0.106-0.085-0.244-0.344-0.431-0.294c-0.125,0.162-0.017-0.352-0.201-0.095
			c-0.01,0.144-0.003,0.326-0.057,0.077C21.978,0.929,22.075,0.827,22.016,0.811z M21.566,0.813c-0.148,0.049-0.14,0.249,0.042,0.27
			C21.67,1.012,21.633,0.827,21.566,0.813z M20.988,0.877c-0.192,0.045-0.114,0.2-0.055,0.244c-0.238,0.059,0.363,0.076,0.064,0.114
			c-0.249,0.099,0.24,0.216,0.32,0.098c0.307,0.075,0.011-0.246-0.016-0.419c-0.13-0.14-0.005,0.322-0.123,0.015
			C21.137,1.02,21.007,0.942,20.988,0.877z M27.098,0.897c-0.258,0.101,0.16,0.481,0.056,0.135
			C27.144,0.99,27.178,0.88,27.098,0.897z M21.71,1.05c-0.185,0.174,0.236,0.318-0.053,0.447c-0.043-0.161-0.118,0.081-0.283-0.05
			c-0.284,0.118-0.429-0.061-0.667-0.185c-0.143-0.018-0.089,0.135-0.099,0.279c0,0.397,0,0.793,0,1.19
			c0.14,0.147,0.055,0.065,0,0.024c0.077,0.261-0.034,0.643,0.269,0.795c0.052,0.095,0.268,0.502,0.278,0.38
			c-0.108-0.113-0.22-0.453-0.036-0.15c0.164,0.288,0.386,0.474,0.71,0.543c0.177,0.06,0.323,0.267,0.478,0.221
			c0.088,0.232-0.261,0.454,0.012,0.67c0.142,0.219,0.381,0.362,0.252,0.669c-0.09,0.3-0.052,0.626-0.13,0.906
			c-0.024,0.17,0.237,0.602,0.215,0.256c0.076-0.24,0.074-0.504,0.254-0.674c0.246,0.002,0.047-0.264,0.291-0.229
			c0.149-0.195,0.192-0.428,0.444-0.505c0.03-0.237,0.419-0.6,0.017-0.692c-0.109-0.054-0.39-0.073-0.368-0.099
			c0.043-0.235-0.363-0.302-0.536-0.398c-0.227-0.161-0.568,0.267-0.648-0.102c-0.048-0.116-0.222-0.118-0.142-0.297
			c-0.145,0.144-0.427,0.1-0.353-0.177c0.112-0.233,0.544-0.244,0.618,0.036c-0.102-0.31,0.198-0.551,0.364-0.771
			c0.034-0.105,0.235-0.196,0.166-0.056c0.118-0.004,0.297-0.217,0.087-0.119c-0.003-0.194-0.184-0.139-0.242-0.111
			c0.109-0.172,0.666-0.078,0.433-0.359c-0.181-0.073-0.166-0.5-0.349-0.262c0.015-0.147-0.373-0.434-0.364-0.188
			c0.047,0.22,0.009,0.473-0.092,0.617c-0.021-0.322-0.572-0.251-0.501-0.594c0.103-0.164,0.222-0.39,0.234-0.37
			c0.184-0.07,0.332-0.274,0.119-0.408c-0.011,0.117-0.16,0.358-0.139,0.066C21.808,1.517,21.84,1.094,21.71,1.05z M26.111,1.163
			C25.788,1.242,25.66,1.55,25.5,1.805c-0.235,0.106-0.227,0.561,0.037,0.416c0.07,0.123-0.049,0.316,0.156,0.156
			c0.165-0.218,0.029-0.572,0.31-0.71c0.021,0.107-0.26,0.507,0.068,0.441c0.296,0.011-0.215,0.029-0.071,0.218
			c-0.15-0.089-0.072,0.242-0.267,0.165c-0.169,0.092-0.28-0.043-0.241-0.19c-0.133,0.077,0.042,0.296-0.189,0.309
			c-0.052,0.183-0.477,0.156-0.235,0.342c0.107,0.278-0.4,0.017-0.256,0.351c0.123,0.33,0.382-0.109,0.486-0.194
			c0.202-0.157,0.502,0.267,0.32,0.283c0.204-0.027,0.162-0.221-0.001-0.296c-0.088-0.229,0.28,0.112,0.259,0.227
			c0.13,0.243,0.076-0.248,0.208-0.031c-0.015,0.229,0.531,0.054,0.27,0.346c-0.224,0.045-0.445-0.058-0.639,0.008
			c-0.18-0.002-0.171-0.193-0.236-0.241c-0.229,0.019-0.511,0.016-0.665,0.201c-0.166,0.227-0.404,0.544-0.224,0.833
			c0.181,0.429,0.629,0.022,0.886,0.276c0.077,0.106-0.066,0.231,0.105,0.346c0.064,0.244-0.073,0.475,0.085,0.708
			c0.082,0.219,0.133,0.547,0.437,0.347c0.322-0.193,0.236-0.55,0.502-0.748c-0.21-0.406,0.257-0.584,0.374-0.914
			c-0.255,0.037-0.482-0.216-0.544-0.472c-0.107-0.124-0.079-0.307,0.04-0.074c0.164,0.159,0.168,0.631,0.472,0.388
			c0.139-0.058,0.519-0.279,0.216-0.38c-0.195,0.141-0.41-0.421-0.124-0.095c0.208,0.088,0.354,0.141,0.354-0.152
			c0-0.787,0-1.585,0-2.378c-0.065,0.066-0.231,0.188-0.316,0.107c-0.145,0.02-0.336,0.301-0.29,0.029
			c-0.126-0.008-0.023,0.244-0.195,0.251c-0.017,0.129-0.175,0.024-0.116,0.147c-0.121-0.086-0.224-0.357,0.015-0.187
			c0.355-0.106-0.234-0.346-0.279-0.404C26.29,1.216,26.13,1.137,26.111,1.163z M23.182,1.234 M21.604,1.287 M22.37,1.424
			 M24.56,1.617c-0.117,0.135-0.272-0.035-0.274,0.08c0.021,0.035,0.106,0.284,0.293,0.1C24.679,1.756,24.639,1.65,24.56,1.617z
			 M22.067,1.698c-0.222,0.194,0.377,0.211,0.047,0.022L22.067,1.698z M24.997,2.234c-0.16,0.104,0.077,0.325-0.003,0.429
			c-0.1,0.174,0.372-0.012,0.12-0.151C25.096,2.392,24.966,2.246,24.997,2.234z M24.89,2.444c-0.223,0.063-0.051,0.387,0.028,0.082
			C24.922,2.508,24.928,2.443,24.89,2.444z M23.105,2.679c-0.207,0.141-0.032,0.282,0.12,0.218
			C23.194,2.812,23.107,2.759,23.105,2.679z M27.021,2.916c0.103,0.052-0.19,0.141-0.004,0.233c0.108,0.127,0.067,0.399-0.108,0.206
			C26.942,3.14,26.671,2.98,27.021,2.916z M26.489,2.918c-0.014,0.138,0.299,0.353-0.038,0.283
			c-0.178,0.021-0.445-0.005-0.221-0.227c0.071-0.042,0.257,0.147,0.16-0.03C26.425,2.941,26.457,2.928,26.489,2.918z M25.46,3.217
			 M22.197,3.996c-0.022,0.073,0.411,0.147,0.112,0.03L22.264,4.01L22.197,3.996z M22.533,4.1 M26.924,5.32
			c-0.285,0.007-0.247,0.742-0.049,0.307C26.895,5.533,26.97,5.408,26.924,5.32z"/>
	</g>
	<g>
		<path fill="#3C3C3C" d="M23.778,7.427c-1.999,0-3.625-1.626-3.625-3.625s1.626-3.625,3.625-3.625s3.625,1.626,3.625,3.625
			S25.777,7.427,23.778,7.427z M23.778,0.63c-1.749,0-3.172,1.423-3.172,3.172c0,1.749,1.423,3.172,3.172,3.172
			c1.749,0,3.172-1.423,3.172-3.172C26.95,2.053,25.526,0.63,23.778,0.63z"/>
	</g>
</g>
<line fill="none" stroke="#3C3C3C" x1="-10.625" y1="30.438" x2="-32.875" y2="30.438"/>
<line fill="none" stroke="#3C3C3C" x1="-16.188" y1="20.803" x2="-27.312" y2="40.072"/>
<line fill="none" stroke="#3C3C3C" x1="-27.312" y1="20.803" x2="-16.188" y2="40.072"/>
<path fill="#3C3C3C" d="M-6.279,25.542c-2.771,0-5.186,1.549-6.426,3.826c0.693-0.612,1.508-1.087,2.408-1.378
	c1.092-0.904,2.493-1.448,4.018-1.448c3.48,0,6.312,2.832,6.312,6.313c0,1.914-0.859,3.628-2.209,4.787
	c-0.435,0.826-1.034,1.55-1.754,2.132c2.882-0.982,4.963-3.708,4.963-6.918C1.034,28.823-2.247,25.542-6.279,25.542z"/>
<ellipse fill="none" stroke="#3C3C3C" cx="8" cy="8" rx="7.5" ry="3.5"/>
<ellipse transform="matrix(0.5 -0.866 0.866 0.5 -2.9282 10.9282)" fill="none" stroke="#3C3C3C" cx="8" cy="8" rx="7.5" ry="3.5"/>
<ellipse transform="matrix(-0.5 -0.866 0.866 -0.5 5.0718 18.9282)" fill="none" stroke="#3C3C3C" cx="8" cy="8" rx="7.5" ry="3.5"/>
</svg>

<?xml version="1.0" encoding="UTF-8"?>
<!DOCTYPE svg PUBLIC "-//W3C//DTD SVG 1.1//EN" "http://www.w3.org/Graphics/SVG/1.1/DTD/svg11.dtd">
<svg version="1.1" xmlns="http://www.w3.org/2000/svg" xmlns:xlink="http://www.w3.org/1999/xlink" x="0px" y="0px" width="16" height="16" viewBox="0, 0, 16, 16">
  <g id="Layer 1">
    <g>
      <path d="M31.693,8.071 L31.693,16.071" fill-opacity="0" stroke="#3C3C3C" stroke-width="1"/>
      <path d="M31.193,16.571 L43.193,16.571" fill-opacity="0" stroke="#3C3C3C" stroke-width="1"/>
      <path d="M42.693,17.071 L42.693,3.071" fill-opacity="0" stroke="#3C3C3C" stroke-width="1"/>
    </g>
    <path d="M35.693,12.571 L38.693,12.571 L38.693,16.571 L35.693,16.571 z" fill-opacity="0" stroke="#3C3C3C" stroke-width="1"/>
    <path d="M40.193,3.571 L42.193,3.571" fill-opacity="0" stroke="#3C3C3C" stroke-width="1"/>
    <path d="M40.693,4.071 L40.693,7.071" fill-opacity="0" stroke="#3C3C3C" stroke-width="1"/>
    <g>
      <path d="M44.264,10.278 L36.486,2.5" fill-opacity="0" stroke="#3C3C3C" stroke-width="2"/>
      <path d="M30.122,10.278 L37.9,2.5" fill-opacity="0" stroke="#3C3C3C" stroke-width="2"/>
    </g>
    <path d="M3.875,20.321 L16.875,20.321 L16.875,29.321 L3.875,29.321 z" fill-opacity="0" stroke="#3C3C3C" stroke-width="1"/>
    <path d="M7.875,29.25 L12.875,29.25 L12.875,32.25 L7.875,32.25 z" fill-opacity="0" stroke="#3C3C3C" stroke-width="1"/>
    <path d="M6.375,31.25 L14.375,31.25 L14.375,33.25 L6.375,33.25 z" fill="#3C3C3C"/>
    <g>
      <path d="M23.052,0.638 C23.185,0.817 23.061,1.115 23.262,1.112 C23.36,1.25 23.067,1.153 23.278,1.26 C23.4,1.356 23.149,1.41 23.3,1.496 C23.126,1.585 23.328,1.964 23.457,2.059 C23.669,2.237 23.551,1.681 23.788,1.652 C23.917,1.505 24.143,1.411 24.304,1.264 C24.147,1.251 24.055,1.154 24.204,1.093 C24.478,1.373 24.273,0.96 24.121,0.895 C24.268,0.848 24.41,0.883 24.39,0.762 C24.545,0.649 24.241,0.612 24.133,0.638 C23.773,0.638 23.413,0.638 23.052,0.638 z M20.805,0.755 C20.607,0.811 20.593,1.283 20.792,1.021 C20.842,0.913 21.067,0.784 20.805,0.755 z M21.731,0.771 C21.617,0.95 21.748,1.093 21.843,0.875 C21.909,0.784 21.792,0.775 21.731,0.771 z M22.016,0.811 C21.795,0.913 21.962,1.151 21.967,1.204 C22.199,1.284 22.328,1.152 22.416,1.378 C22.637,1.505 22.412,1.726 22.329,1.784 C22.478,1.654 22.766,2.137 22.69,1.882 C22.6,1.817 22.931,1.987 22.759,1.774 C22.601,1.52 22.772,1.66 22.838,1.72 C23.065,1.517 22.582,1.493 22.702,1.284 C22.596,1.199 22.458,0.94 22.271,0.99 C22.146,1.152 22.254,0.638 22.07,0.895 C22.06,1.039 22.067,1.221 22.013,0.972 C21.978,0.929 22.075,0.827 22.016,0.811 z M21.566,0.813 C21.418,0.862 21.426,1.062 21.608,1.083 C21.67,1.012 21.633,0.827 21.566,0.813 z M20.988,0.877 C20.796,0.922 20.874,1.077 20.933,1.121 C20.695,1.18 21.296,1.197 20.997,1.235 C20.748,1.334 21.237,1.451 21.317,1.333 C21.624,1.408 21.328,1.087 21.301,0.914 C21.171,0.774 21.296,1.236 21.178,0.929 C21.137,1.02 21.007,0.942 20.988,0.877 z M27.098,0.897 C26.84,0.998 27.258,1.378 27.154,1.032 C27.144,0.99 27.178,0.88 27.098,0.897 z M21.71,1.05 C21.525,1.224 21.946,1.368 21.657,1.497 C21.614,1.336 21.539,1.578 21.374,1.447 C21.09,1.565 20.945,1.386 20.707,1.262 C20.564,1.244 20.618,1.397 20.608,1.541 C20.608,1.938 20.608,2.334 20.608,2.731 C20.748,2.878 20.663,2.796 20.608,2.755 C20.685,3.016 20.574,3.398 20.877,3.55 C20.929,3.645 21.145,4.052 21.155,3.93 C21.047,3.817 20.935,3.477 21.119,3.78 C21.283,4.068 21.505,4.254 21.829,4.323 C22.006,4.383 22.152,4.59 22.307,4.544 C22.395,4.776 22.046,4.998 22.319,5.214 C22.461,5.433 22.7,5.576 22.571,5.883 C22.481,6.183 22.519,6.509 22.441,6.789 C22.417,6.959 22.678,7.391 22.656,7.045 C22.732,6.805 22.73,6.541 22.91,6.371 C23.156,6.373 22.957,6.107 23.201,6.142 C23.35,5.947 23.393,5.714 23.645,5.637 C23.675,5.4 24.064,5.037 23.662,4.945 C23.553,4.891 23.272,4.872 23.294,4.846 C23.337,4.611 22.931,4.544 22.758,4.448 C22.531,4.287 22.19,4.715 22.11,4.346 C22.062,4.23 21.888,4.228 21.968,4.049 C21.823,4.193 21.541,4.149 21.615,3.872 C21.727,3.639 22.159,3.628 22.233,3.908 C22.131,3.598 22.431,3.357 22.597,3.137 C22.631,3.032 22.832,2.941 22.763,3.081 C22.881,3.077 23.06,2.864 22.85,2.962 C22.847,2.768 22.666,2.823 22.608,2.851 C22.717,2.679 23.274,2.773 23.041,2.492 C22.86,2.419 22.875,1.992 22.692,2.23 C22.707,2.083 22.319,1.796 22.328,2.042 C22.375,2.262 22.337,2.515 22.236,2.659 C22.215,2.337 21.664,2.408 21.735,2.065 C21.838,1.901 21.957,1.675 21.969,1.695 C22.153,1.625 22.301,1.421 22.088,1.287 C22.077,1.404 21.928,1.645 21.949,1.353 C21.808,1.517 21.84,1.094 21.71,1.05 z M26.111,1.163 C25.788,1.242 25.66,1.55 25.5,1.805 C25.265,1.911 25.273,2.366 25.537,2.221 C25.607,2.344 25.488,2.537 25.693,2.377 C25.858,2.159 25.722,1.805 26.003,1.667 C26.024,1.774 25.743,2.174 26.071,2.108 C26.367,2.119 25.856,2.137 26,2.326 C25.85,2.237 25.928,2.568 25.733,2.491 C25.564,2.583 25.453,2.448 25.492,2.301 C25.359,2.378 25.534,2.597 25.303,2.61 C25.251,2.793 24.826,2.766 25.068,2.952 C25.175,3.23 24.668,2.969 24.812,3.303 C24.935,3.633 25.194,3.194 25.298,3.109 C25.5,2.952 25.8,3.376 25.618,3.392 C25.822,3.365 25.78,3.171 25.617,3.096 C25.529,2.867 25.897,3.208 25.876,3.323 C26.006,3.566 25.952,3.075 26.084,3.292 C26.069,3.521 26.615,3.346 26.354,3.638 C26.13,3.683 25.909,3.58 25.715,3.646 C25.535,3.644 25.544,3.453 25.479,3.405 C25.25,3.424 24.968,3.421 24.814,3.606 C24.648,3.833 24.41,4.15 24.59,4.439 C24.771,4.868 25.219,4.461 25.476,4.715 C25.553,4.821 25.41,4.946 25.581,5.061 C25.645,5.305 25.508,5.536 25.666,5.769 C25.748,5.988 25.799,6.316 26.103,6.116 C26.425,5.923 26.339,5.566 26.605,5.368 C26.395,4.962 26.862,4.784 26.979,4.454 C26.724,4.491 26.497,4.238 26.435,3.982 C26.328,3.858 26.356,3.675 26.475,3.908 C26.639,4.067 26.643,4.539 26.947,4.296 C27.086,4.238 27.466,4.017 27.163,3.916 C26.968,4.057 26.753,3.495 27.039,3.821 C27.247,3.909 27.393,3.962 27.393,3.669 C27.393,2.882 27.393,2.084 27.393,1.291 C27.328,1.357 27.162,1.479 27.077,1.398 C26.932,1.418 26.741,1.699 26.787,1.427 C26.661,1.419 26.764,1.671 26.592,1.678 C26.575,1.807 26.417,1.702 26.476,1.825 C26.355,1.739 26.252,1.468 26.491,1.638 C26.846,1.532 26.257,1.292 26.212,1.234 C26.29,1.216 26.13,1.137 26.111,1.163 z M23.182,1.234 M21.604,1.287 M22.37,1.424 M24.56,1.617 C24.443,1.752 24.288,1.582 24.286,1.697 C24.307,1.732 24.392,1.981 24.579,1.797 C24.679,1.756 24.639,1.65 24.56,1.617 z M22.067,1.698 C21.845,1.892 22.444,1.909 22.114,1.72 L22.067,1.698 z M24.997,2.234 C24.837,2.338 25.074,2.559 24.994,2.663 C24.894,2.837 25.366,2.651 25.114,2.512 C25.096,2.392 24.966,2.246 24.997,2.234 z M24.89,2.444 C24.667,2.507 24.839,2.831 24.918,2.526 C24.922,2.508 24.928,2.443 24.89,2.444 z M23.105,2.679 C22.898,2.82 23.073,2.961 23.225,2.897 C23.194,2.812 23.107,2.759 23.105,2.679 z M27.021,2.916 C27.124,2.968 26.831,3.057 27.017,3.149 C27.125,3.276 27.084,3.548 26.909,3.355 C26.942,3.14 26.671,2.98 27.021,2.916 z M26.489,2.918 C26.475,3.056 26.788,3.271 26.451,3.201 C26.273,3.222 26.006,3.196 26.23,2.974 C26.301,2.932 26.487,3.121 26.39,2.944 C26.425,2.941 26.457,2.928 26.489,2.918 z M25.46,3.217 M22.197,3.996 C22.175,4.069 22.608,4.143 22.309,4.026 L22.264,4.01 L22.197,3.996 z M22.533,4.1 M26.924,5.32 C26.639,5.327 26.677,6.062 26.875,5.627 C26.895,5.533 26.97,5.408 26.924,5.32 z" fill="#3C3C3C"/>
      <path d="M23.778,7.427 C21.779,7.427 20.153,5.801 20.153,3.802 C20.153,1.803 21.779,0.177 23.778,0.177 C25.777,0.177 27.403,1.803 27.403,3.802 C27.403,5.801 25.777,7.427 23.778,7.427 z M23.778,0.63 C22.029,0.63 20.606,2.053 20.606,3.802 C20.606,5.551 22.029,6.974 23.778,6.974 C25.527,6.974 26.95,5.551 26.95,3.802 C26.95,2.053 25.526,0.63 23.778,0.63 z" fill="#3C3C3C"/>
    </g>
    <path d="M-10.625,30.438 L-32.875,30.438" fill-opacity="0" stroke="#3C3C3C" stroke-width="1"/>
    <path d="M-16.188,20.803 L-27.312,40.072" fill-opacity="0" stroke="#3C3C3C" stroke-width="1"/>
    <path d="M-27.312,20.803 L-16.188,40.072" fill-opacity="0" stroke="#3C3C3C" stroke-width="1"/>
    <path d="M-6.279,25.542 C-9.05,25.542 -11.465,27.091 -12.705,29.368 C-12.012,28.756 -11.197,28.281 -10.297,27.99 C-9.205,27.086 -7.804,26.542 -6.279,26.542 C-2.799,26.542 0.033,29.374 0.033,32.855 C0.033,34.769 -0.826,36.483 -2.176,37.642 C-2.611,38.468 -3.21,39.192 -3.93,39.774 C-1.048,38.792 1.033,36.066 1.033,32.856 C1.034,28.823 -2.247,25.542 -6.279,25.542 z" fill="#3C3C3C"/>
    <path d="M15.5,8 C15.5,9.933 12.142,11.5 8,11.5 C3.858,11.5 0.5,9.933 0.5,8 C0.5,6.067 3.858,4.5 8,4.5 C12.142,4.5 15.5,6.067 15.5,8 z" fill-opacity="0" stroke="#3C3C3C" stroke-width="1"/>
    <path d="M11.75,1.505 C13.424,2.472 13.102,6.163 11.031,9.75 C8.96,13.337 5.924,15.462 4.25,14.495 C2.576,13.529 2.898,9.837 4.969,6.25 C7.04,2.663 10.076,0.539 11.75,1.505 z" fill-opacity="0" stroke="#3C3C3C" stroke-width="1"/>
    <path d="M4.25,1.505 C5.924,0.539 8.96,2.663 11.031,6.25 C13.102,9.837 13.424,13.529 11.75,14.495 C10.076,15.462 7.04,13.337 4.969,9.75 C2.898,6.163 2.576,2.472 4.25,1.505 z" fill-opacity="0" stroke="#3C3C3C" stroke-width="1"/>
  </g>
  <defs/>
</svg>
